X:23006
T:Wild Mountain Thyme
T:Will You Go Lassie Go
T:Braes o Balquhidder
R:Reel
C:Trad.
O:Scotland
Z:Paul Hardy's Session Tunebook 2022 (see www.paulhardy.net). Creative Commons cc by-nc-sa licenced.
M:4/4
L:1/8
Q:1/4=100
K:G
GA|"G"BB3 "Am"A3G|"Em"EG3 z2 Bd|"C"e3e e3d|"G"Bd3 z2 Bd|"C"e4 "Bm"d2B2|"Em"AG3 z2 AB|
"Am"c3B A2G2|"Em"EG3 G3E|"G"D4 "C"EG3|"G"G4 z2 Bd|"C"e4 e3d|"G"Bd3 z2 Bd|
"C"e4 "Bm"d2B2|"Em"AG3 z2 AB|"Am"c3B A2G2|"C"EG3 G2E2|"G"D4 "C"EG3|"G"G6|]

